X:8
T:Earl’s Chair
R:Reel
M:C|
L:1/8
K:Bm
"Bm"B2 dB BAGA|"Bm"B2 dB BAFB|"D"AF (3FEF DF (3FEF|"D"AFdA BAFA|!
"Bm"B2 dB BAGA|"Bm"B2 dB BAFB|AFAB dcdf|"D"edef d2z2:|!
"Em"e2ec d2Bd|"Em"e2ec dBAB|"D"e2ec dcde|"D"fedB ADFA|!
"Em"e2ec d2Bd|"Em"eB (3BAB gB (3BAB|"D"defg afbf|1"D"afed Bcd2:|2"D"afed BcdB||

